src/Assest/img/discord.svg

<svg width="27" height="20" viewBox="0 0 27 20" fill="none" xmlns="http://www.w3.org/2000/svg">
<path d="M22.8565 1.65872C21.1353 0.892108 19.2904 0.325479 17.361 0.00327775C17.3439 2.00896e-05 17.3261 0.00211944 17.3101 0.0092855C17.2942 0.0164516 17.281 0.0283298 17.2722 0.0432751C17.0359 0.453248 16.7727 0.987658 16.5882 1.40985C14.542 1.10791 12.4617 1.10791 10.4155 1.40985C10.21 0.94195 9.97827 0.485717 9.72138 0.0432751C9.71268 0.0281458 9.6995 0.0159989 9.68363 0.00845533C9.66775 0.00091179 9.64992 -0.00166968 9.63251 0.00105557C7.70432 0.323257 5.85937 0.889886 4.13705 1.65761C4.12223 1.66375 4.10967 1.67422 4.10105 1.68761C0.600148 6.77061 -0.359449 11.7281 0.111912 16.6233C0.113224 16.6353 0.116992 16.6469 0.122988 16.6574C0.128983 16.6679 0.13708 16.6771 0.146786 16.6844C2.19017 18.1537 4.46929 19.2729 6.88872 19.9953C6.90558 20.0004 6.92362 20.0004 6.94048 19.9953C6.95734 19.9901 6.97223 19.9801 6.98321 19.9664C7.50295 19.2776 7.96644 18.5498 8.36242 17.7854C8.38605 17.741 8.36355 17.6877 8.3163 17.6699C7.58958 17.3996 6.88544 17.0734 6.21036 16.6944C6.19823 16.6876 6.18801 16.6779 6.18061 16.6662C6.17322 16.6545 6.16888 16.6411 6.16799 16.6274C6.1671 16.6136 6.16968 16.5998 6.1755 16.5873C6.18133 16.5747 6.19021 16.5638 6.20136 16.5555C6.34311 16.4522 6.48485 16.3444 6.61985 16.2367C6.632 16.227 6.64664 16.2208 6.66213 16.2188C6.67762 16.2169 6.69336 16.2192 6.7076 16.2255C11.1253 18.1854 15.9098 18.1854 20.2758 16.2255C20.2901 16.2188 20.306 16.2162 20.3217 16.218C20.3374 16.2197 20.3523 16.2258 20.3647 16.2355C20.4997 16.3444 20.6403 16.4522 20.7832 16.5555C20.7944 16.5637 20.8035 16.5744 20.8095 16.5869C20.8155 16.5993 20.8183 16.613 20.8176 16.6268C20.817 16.6405 20.8128 16.6539 20.8057 16.6657C20.7985 16.6775 20.7884 16.6874 20.7764 16.6944C20.1037 17.0766 19.404 17.3999 18.6694 17.6688C18.6581 17.6728 18.6478 17.6792 18.6392 17.6875C18.6306 17.6958 18.6239 17.7058 18.6196 17.7168C18.6152 17.7278 18.6133 17.7397 18.6139 17.7515C18.6145 17.7633 18.6177 17.7749 18.6233 17.7854C19.0282 18.5487 19.4917 19.2753 20.0013 19.9653C20.0119 19.9795 20.0267 19.99 20.0436 19.9956C20.0605 20.0012 20.0788 20.0015 20.0958 19.9964C22.5194 19.2761 24.8023 18.1563 26.8479 16.6844C26.8579 16.6775 26.8662 16.6686 26.8725 16.6582C26.8787 16.6479 26.8826 16.6364 26.8839 16.6244C27.4464 10.9648 25.9412 6.04732 22.8914 1.68983C22.8839 1.67567 22.8715 1.66463 22.8565 1.65872ZM9.02278 13.6424C7.69307 13.6424 6.59622 12.4547 6.59622 10.9981C6.59622 9.54043 7.67169 8.35384 9.02278 8.35384C10.384 8.35384 11.4707 9.55043 11.4493 10.9981C11.4493 12.4558 10.3739 13.6424 9.02278 13.6424ZM17.9944 13.6424C16.6636 13.6424 15.5678 12.4547 15.5678 10.9981C15.5678 9.54043 16.6422 8.35384 17.9944 8.35384C19.3556 8.35384 20.4423 9.55043 20.4209 10.9981C20.4209 12.4558 19.3567 13.6424 17.9944 13.6424Z" fill="white"/>
</svg>

<svg width="27" height="20" fill="none" xmlns="http://www.w3.org/2000/svg"><path d="M22.857 1.659A22.702 22.702 0 0 0 17.36.003a.086.086 0 0 0-.089.04c-.236.41-.5.945-.684 1.367a21.145 21.145 0 0 0-6.173 0A13.666 13.666 0 0 0 9.721.043a.086.086 0 0 0-.088-.042 22.686 22.686 0 0 0-5.496 1.657.079.079 0 0 0-.036.03C.601 6.77-.359 11.728.111 16.623a.088.088 0 0 0 .036.061 22.646 22.646 0 0 0 6.742 3.311.09.09 0 0 0 .094-.029c.52-.688.983-1.416 1.38-2.18a.082.082 0 0 0-.047-.116c-.726-.27-1.43-.597-2.106-.976a.084.084 0 0 1-.042-.067.082.082 0 0 1 .033-.072c.142-.103.284-.21.419-.318a.085.085 0 0 1 .088-.011c4.417 1.96 9.202 1.96 13.568 0a.085.085 0 0 1 .089.01c.135.108.275.216.418.32a.084.084 0 0 1 .035.07.083.083 0 0 1-.042.068c-.672.383-1.372.706-2.107.975a.084.084 0 0 0-.055.082.08.08 0 0 0 .01.034c.404.764.868 1.49 1.377 2.18a.087.087 0 0 0 .095.031 22.569 22.569 0 0 0 6.752-3.312.085.085 0 0 0 .036-.06c.562-5.66-.943-10.577-3.993-14.934a.067.067 0 0 0-.034-.031ZM9.023 13.642c-1.33 0-2.427-1.187-2.427-2.644 0-1.458 1.076-2.644 2.427-2.644 1.361 0 2.448 1.196 2.426 2.644 0 1.458-1.075 2.644-2.426 2.644Zm8.971 0c-1.33 0-2.426-1.187-2.426-2.644 0-1.458 1.074-2.644 2.426-2.644 1.362 0 2.448 1.196 2.427 2.644 0 1.458-1.064 2.644-2.427 2.644Z" fill="#fff"/></svg>
